build/img/icon-pp.svg

<svg width="69" height="69" xmlns="http://www.w3.org/2000/svg">
  <path d="M32.9139 68.2259C50.6837 68.2259 65.089 53.1264 65.089 34.5002C65.089 15.874 50.6837 0.774414 32.9139 0.774414C15.1441 0.774414 0.73877 15.874 0.73877 34.5002C0.73877 53.1264 15.1441 68.2259 32.9139 68.2259Z" fill="#D81F26"/>
  <path d="M32.9137 69C24.1239 69 15.8512 65.4075 9.64662 58.8885C3.42729 52.3694 0 43.7134 0 34.5C0 25.2866 3.42729 16.6151 9.64662 10.1115C15.866 3.59246 24.1239 0 32.9137 0C41.7036 0 49.9763 3.59246 56.1809 10.1115C62.4002 16.6306 65.8275 25.2866 65.8275 34.5C65.8275 43.7134 62.4002 52.3849 56.1809 58.8885C49.9763 65.4075 41.7036 69 32.9137 69ZM32.9137 1.54847C15.5853 1.54847 1.47728 16.3209 1.47728 34.5C1.47728 52.6791 15.5853 67.4515 32.9137 67.4515C50.2422 67.4515 64.3502 52.6636 64.3502 34.5C64.3502 16.3364 50.257 1.54847 32.9137 1.54847Z" fill="#3A1811"/>
  <path d="M32.9138 65.7641C32.7069 65.7641 32.5444 65.5938 32.5444 65.377C32.5444 65.1602 32.7069 64.9899 32.9138 64.9899C48.957 64.9899 62.0014 51.3168 62.0014 34.5004C62.0014 34.2836 62.1639 34.1133 62.3707 34.1133C62.5775 34.1133 62.74 34.2836 62.74 34.5004C62.74 51.7349 49.3706 65.7641 32.9138 65.7641Z" fill="#3A1811"/>
  <path d="M59.7705 22.1588C59.6227 22.1588 59.4898 22.0813 59.4307 21.9265C58.633 20.0838 57.6432 18.3031 56.5057 16.6462C54.8659 14.277 52.9159 12.1556 50.7 10.3594C48.617 8.67155 46.342 7.29341 43.9193 6.25593C43.7272 6.17851 43.6386 5.94624 43.7124 5.74493C43.7863 5.54363 44.0079 5.45072 44.1999 5.52815C46.6818 6.59659 49.0306 8.00571 51.1579 9.74C53.4182 11.5827 55.4273 13.7505 57.1114 16.1816C58.2784 17.8695 59.283 19.6967 60.1102 21.5858C60.1989 21.7871 60.1102 22.0039 59.933 22.0968C59.8739 22.1433 59.8148 22.1588 59.7705 22.1588Z" fill="#3A1811"/>
  <path d="M32.9137 61.2114C46.9876 61.2114 58.3968 49.2524 58.3968 34.5002C58.3968 19.7481 46.9876 7.78906 32.9137 7.78906C18.8398 7.78906 7.43066 19.7481 7.43066 34.5002C7.43066 49.2524 18.8398 61.2114 32.9137 61.2114Z" fill="#FAF5AE"/>
  <path d="M32.9136 61.9855C18.451 61.9855 6.69189 49.6596 6.69189 34.5001C6.69189 19.3405 18.451 7.01465 32.9136 7.01465C47.3761 7.01465 59.1353 19.3405 59.1353 34.5001C59.1353 49.6441 47.3761 61.9855 32.9136 61.9855ZM32.9136 8.56312C19.2783 8.56312 8.16917 20.1922 8.16917 34.5001C8.16917 48.808 19.2635 60.437 32.9136 60.437C46.5636 60.437 57.658 48.808 57.658 34.5001C57.658 20.1922 46.5636 8.56312 32.9136 8.56312Z" fill="#3A1811"/>
  <path d="M32.9138 58.4237C32.7069 58.4237 32.5444 58.2534 32.5444 58.0366C32.5444 57.8198 32.7069 57.6495 32.9138 57.6495C37.7445 57.6495 42.3388 56.0391 46.1797 53.0041C46.3422 52.8802 46.5786 52.9112 46.6968 53.0815C46.8149 53.2518 46.7854 53.4996 46.6229 53.6234C42.649 56.7669 37.907 58.4237 32.9138 58.4237Z" fill="#3A1811"/>
  <path d="M50.5227 49.5046C50.4489 49.5046 50.3602 49.4736 50.2864 49.4272C50.1239 49.2878 50.0943 49.0555 50.2273 48.8852C53.3443 44.7663 54.9989 39.7957 54.9989 34.5154C54.9989 29.5757 53.5364 24.8684 50.7591 20.8888C50.6409 20.7185 50.6705 20.4707 50.833 20.3468C50.9955 20.223 51.2318 20.2539 51.35 20.4243C54.2159 24.5432 55.7228 29.4054 55.7228 34.5154C55.7228 39.966 54.0239 45.1069 50.7886 49.3652C50.7443 49.4427 50.6409 49.5046 50.5227 49.5046Z" fill="#3A1811"/>
  <path d="M20.756 15.0821C20.6378 15.0821 20.5196 15.0202 20.4458 14.9118C20.3424 14.7259 20.3867 14.4937 20.5492 14.3698C24.2276 11.8768 28.5117 10.5605 32.914 10.5605C35.8538 10.5605 38.7197 11.1335 41.4231 12.2794C41.6152 12.3568 41.7038 12.589 41.6299 12.7904C41.5561 12.9917 41.3345 13.0846 41.1424 13.0071C38.5276 11.9077 35.7504 11.3503 32.914 11.3503C28.6447 11.3503 24.5083 12.62 20.948 15.0356C20.8889 15.0666 20.8151 15.0821 20.756 15.0821Z" fill="#3A1811"/>
  <path d="M32.9136 53.5926C42.9733 53.5926 51.1284 45.0445 51.1284 34.4999C51.1284 23.9553 42.9733 15.4072 32.9136 15.4072C22.8538 15.4072 14.6987 23.9553 14.6987 34.4999C14.6987 45.0445 22.8538 53.5926 32.9136 53.5926Z" fill="#D81F26"/>
  <path d="M32.9139 54.3667C22.4548 54.3667 13.9604 45.4474 13.9604 34.4997C13.9604 23.552 22.4696 14.6328 32.9139 14.6328C43.3731 14.6328 51.8674 23.552 51.8674 34.4997C51.8674 45.4474 43.3731 54.3667 32.9139 54.3667ZM32.9139 16.1813C23.2821 16.1813 15.4377 24.4037 15.4377 34.4997C15.4377 44.5958 23.2821 52.8182 32.9139 52.8182C42.5458 52.8182 50.3901 44.5958 50.3901 34.4997C50.3901 24.3882 42.5605 16.1813 32.9139 16.1813Z" fill="#3A1811"/>
  <path d="M32.9139 51.0228C29.1912 51.0228 25.5866 49.6446 22.7503 47.1361C22.5878 46.9967 22.573 46.749 22.706 46.5941C22.8389 46.4238 23.0753 46.4083 23.223 46.5477C25.9264 48.9478 29.3685 50.264 32.9139 50.264C36.223 50.264 39.3696 49.1646 41.9992 47.0587C44.5401 45.0302 46.4458 42.15 47.3322 38.9601C47.731 37.5201 47.9379 36.0335 47.9379 34.516C47.9379 34.2992 48.1004 34.1289 48.3072 34.1289C48.514 34.1289 48.6765 34.2992 48.6765 34.516C48.6765 36.0955 48.4697 37.6749 48.0413 39.1769C47.0958 42.5371 45.1163 45.5566 42.4424 47.6781C39.6799 49.8614 36.3855 51.0228 32.9139 51.0228Z" fill="#3A1811"/>
  <path d="M45.4263 25.4877C45.3081 25.4877 45.2047 25.4257 45.1308 25.3328C43.1365 22.4062 40.2115 20.2848 36.932 19.3247C36.7399 19.2628 36.6217 19.0615 36.6808 18.8447C36.7399 18.6434 36.932 18.5195 37.1388 18.5815C40.5956 19.588 43.6388 21.8178 45.7513 24.8837C45.8695 25.0541 45.8252 25.3018 45.6627 25.4257C45.574 25.4567 45.5002 25.4877 45.4263 25.4877Z" fill="#3A1811"/>
  <path d="M32.9139 46.1599C39.0575 46.1599 44.0378 40.9395 44.0378 34.4999C44.0378 28.0602 39.0575 22.8398 32.9139 22.8398C26.7704 22.8398 21.79 28.0602 21.79 34.4999C21.79 40.9395 26.7704 46.1599 32.9139 46.1599Z" fill="#FAF5AE"/>
  <path d="M32.9138 46.9339C26.3695 46.9339 21.0513 41.3594 21.0513 34.4997C21.0513 27.6399 26.3695 22.0654 32.9138 22.0654C39.4581 22.0654 44.7764 27.6399 44.7764 34.4997C44.7764 41.3594 39.4581 46.9339 32.9138 46.9339ZM32.9138 23.5984C27.182 23.5984 22.5285 28.4761 22.5285 34.4842C22.5285 40.4923 27.182 45.37 32.9138 45.37C38.6456 45.37 43.2991 40.4923 43.2991 34.4842C43.2991 28.4761 38.6456 23.5984 32.9138 23.5984Z" fill="#3A1811"/>
  <path d="M32.9138 43.9769C32.7069 43.9769 32.5444 43.8066 32.5444 43.5898C32.5444 43.373 32.7069 43.2027 32.9138 43.2027C37.4933 43.2027 41.2308 39.3005 41.2308 34.4848C41.2308 34.268 41.3933 34.0977 41.6001 34.0977C41.807 34.0977 41.9695 34.268 41.9695 34.4848C41.9695 39.7341 37.907 43.9769 32.9138 43.9769Z" fill="#3A1811"/>
  <path d="M40.1082 29.7928C39.99 29.7928 39.8719 29.7309 39.798 29.6225C39.0446 28.4611 38.0253 27.4856 36.8434 26.8197C36.6662 26.7113 36.5923 26.4791 36.6957 26.2933C36.7991 26.1074 37.0207 26.03 37.198 26.1384C38.4832 26.8662 39.5912 27.9192 40.4184 29.1889C40.5366 29.3592 40.4923 29.607 40.315 29.7309C40.2559 29.7618 40.1821 29.7928 40.1082 29.7928Z" fill="#3A1811"/>
  <path d="M32.9136 39.9818C35.8019 39.9818 38.1432 37.5276 38.1432 34.5002C38.1432 31.4727 35.8019 29.0186 32.9136 29.0186C30.0254 29.0186 27.6841 31.4727 27.6841 34.5002C27.6841 37.5276 30.0254 39.9818 32.9136 39.9818Z" fill="#BE1E2D"/>
  <path d="M32.9135 40.7402C29.6192 40.7402 26.9453 37.9375 26.9453 34.4844C26.9453 31.0313 29.6192 28.2285 32.9135 28.2285C36.2078 28.2285 38.8817 31.0313 38.8817 34.4844C38.8817 37.9375 36.2078 40.7402 32.9135 40.7402ZM32.9135 29.7925C30.4465 29.7925 28.4226 31.8984 28.4226 34.4998C28.4226 37.0858 30.4317 39.2072 32.9135 39.2072C35.3953 39.2072 37.4044 37.1013 37.4044 34.4998C37.4044 31.8984 35.3953 29.7925 32.9135 29.7925Z" fill="#3A1811"/>
  <path d="M66.108 35.6146H33.9772C33.3863 35.6146 32.9136 35.1191 32.9136 34.4997C32.9136 33.8803 33.3863 33.3848 33.9772 33.3848H66.108C66.6989 33.3848 67.1717 33.8803 67.1717 34.4997C67.1569 35.1036 66.6842 35.6146 66.108 35.6146Z" fill="#A67A44"/>
  <path d="M66.1082 36.0021H33.9774C33.1944 36.0021 32.5444 35.3362 32.5444 34.5001C32.5444 33.6639 33.1797 32.998 33.9774 32.998H66.1082C66.8911 32.998 67.5412 33.6639 67.5412 34.5001C67.5412 35.3362 66.8911 36.0021 66.1082 36.0021ZM33.9774 33.7723C33.5933 33.7723 33.2831 34.0975 33.2831 34.5001C33.2831 34.9027 33.5933 35.2278 33.9774 35.2278H66.1082C66.4923 35.2278 66.8025 34.9027 66.8025 34.5001C66.8025 34.0975 66.4923 33.7723 66.1082 33.7723H33.9774Z" fill="#3A1811"/>
  <path d="M65.0152 33.3854H57.8356C57.4811 33.3854 57.3186 32.9364 57.5697 32.6886L60.7902 29.5762C60.864 29.5142 60.9527 29.4678 61.0561 29.4678H68.2357C68.5902 29.4678 68.7527 29.9168 68.5016 30.1646L65.2811 33.277C65.2072 33.339 65.1186 33.3854 65.0152 33.3854Z" fill="#00AEEF"/>
  <path d="M65.0149 33.772H57.8353C57.5251 33.772 57.2444 33.5707 57.1262 33.2764C57.0081 32.9822 57.0819 32.6261 57.3183 32.4093L60.5387 29.2969C60.6717 29.1575 60.8637 29.0801 61.0558 29.0801H68.2354C68.5456 29.0801 68.8263 29.2814 68.9445 29.5756C69.0626 29.8698 68.9888 30.226 68.7524 30.4427L65.5319 33.5552C65.399 33.6945 65.2069 33.772 65.0149 33.772ZM61.0558 29.8543L57.8353 32.9667C57.8353 32.9667 57.8206 32.9822 57.8353 32.9822C57.8353 32.9977 57.8353 32.9977 57.8501 32.9977H65.0297H65.0444L68.2501 29.8853C68.2501 29.8853 68.2649 29.8698 68.2501 29.8698C68.2501 29.8543 68.2501 29.8543 68.2354 29.8543H61.0558V29.8543Z" fill="#3A1811"/>
  <path d="M65.0152 35.6152H57.8356C57.4811 35.6152 57.3186 36.0643 57.5697 36.312L60.7902 39.4245C60.864 39.4864 60.9527 39.5329 61.0561 39.5329H68.2357C68.5902 39.5329 68.7527 39.0838 68.5016 38.8361L65.2811 35.7236C65.2072 35.6462 65.1186 35.6152 65.0152 35.6152Z" fill="#00AEEF"/>
  <path d="M68.2354 39.9038H61.0558C60.8637 39.9038 60.6865 39.8264 60.5387 39.687L57.3183 36.5746C57.0819 36.3578 57.0081 36.0171 57.1262 35.7074C57.2444 35.3977 57.5103 35.2119 57.8353 35.2119H65.0149C65.2069 35.2119 65.3842 35.2893 65.5319 35.4287L68.7524 38.5411C68.9888 38.7579 69.0626 39.0986 68.9445 39.4083C68.8263 39.7025 68.5456 39.9038 68.2354 39.9038ZM57.8501 36.0016C57.8353 36.0016 57.8353 36.0016 57.8353 36.0171C57.8353 36.0326 57.8353 36.0326 57.8353 36.0326L61.0558 39.145H68.2501C68.2649 39.145 68.2649 39.145 68.2649 39.1296C68.2649 39.1141 68.2649 39.1141 68.2649 39.1141L65.0444 36.0016H57.8501Z" fill="#3A1811"/>
  <path d="M59.1503 35.0262H44.0378C43.831 35.0262 43.6685 34.8559 43.6685 34.6391C43.6685 34.4223 43.831 34.252 44.0378 34.252H59.1356C59.3424 34.252 59.5049 34.4223 59.5049 34.6391C59.5196 34.8559 59.3571 35.0262 59.1503 35.0262Z" fill="#3A1811"/>
  <path d="M64.9413 32.7041H61.2038C60.997 32.7041 60.8345 32.5338 60.8345 32.317C60.8345 32.1002 60.997 31.9299 61.2038 31.9299H64.6458L66.0936 30.5363C66.2413 30.3969 66.4777 30.3969 66.6106 30.5517C66.7436 30.7066 66.7436 30.9543 66.5959 31.0937L64.9413 32.7041Z" fill="#3A1811"/>
  <path d="M64.6606 36.9774H61.2038C60.997 36.9774 60.8345 36.807 60.8345 36.5902C60.8345 36.3735 60.997 36.2031 61.2038 36.2031H64.6606C64.8674 36.2031 65.0299 36.3735 65.0299 36.5902C65.0299 36.807 64.8674 36.9774 64.6606 36.9774Z" fill="#3A1811"/>
</svg>

<svg width="69" height="69" xmlns="http://www.w3.org/2000/svg"><path d="M32.914 68.226c17.77 0 32.175-15.1 32.175-33.726C65.089 15.874 50.684.774 32.914.774 15.144.774.739 15.874.739 34.5c0 18.626 14.405 33.726 32.175 33.726z" fill="#D81F26"/><path d="M32.914 69c-8.79 0-17.063-3.593-23.267-10.111C3.427 52.368 0 43.712 0 34.5s3.427-17.885 9.647-24.389C15.866 3.592 24.124 0 32.914 0S49.976 3.592 56.18 10.111c6.22 6.52 9.647 15.176 9.647 24.389S62.4 52.385 56.18 58.889C49.976 65.406 41.704 69 32.914 69zm0-67.452C15.585 1.548 1.477 16.321 1.477 34.5c0 18.18 14.108 32.951 31.437 32.951 17.328 0 31.436-14.787 31.436-32.951S50.257 1.548 32.914 1.548z" fill="#3A1811"/><path d="M32.914 65.764a.375.375 0 01-.37-.387c0-.217.163-.387.37-.387C48.957 64.99 62 51.317 62 34.5c0-.216.163-.387.37-.387.206 0 .369.17.369.387 0 17.235-13.37 31.264-29.826 31.264zM59.77 22.159a.35.35 0 01-.34-.232 31.435 31.435 0 00-2.924-5.28 30.214 30.214 0 00-5.806-6.288 28.73 28.73 0 00-6.78-4.103c-.193-.077-.281-.31-.208-.511a.37.37 0 01.488-.217 29.416 29.416 0 016.958 4.212 31.334 31.334 0 015.953 6.442 32.33 32.33 0 013 5.404.394.394 0 01-.178.51.267.267 0 01-.163.063z" fill="#3A1811"/><path d="M32.914 61.211c14.074 0 25.483-11.959 25.483-26.71 0-14.753-11.41-26.712-25.483-26.712C18.84 7.79 7.43 19.75 7.43 34.5c0 14.752 11.409 26.711 25.483 26.711z" fill="#FAF5AE"/><path d="M32.914 61.986C18.45 61.986 6.692 49.66 6.692 34.5S18.45 7.015 32.914 7.015c14.462 0 26.221 12.325 26.221 27.485 0 15.144-11.759 27.486-26.221 27.486zm0-53.423c-13.636 0-24.745 11.63-24.745 25.937 0 14.308 11.095 25.937 24.745 25.937S57.658 48.808 57.658 34.5c0-14.308-11.094-25.937-24.744-25.937z" fill="#3A1811"/><path d="M32.914 58.424a.375.375 0 01-.37-.387c0-.217.163-.387.37-.387 4.83 0 9.425-1.61 13.266-4.646a.362.362 0 01.517.078c.118.17.088.418-.074.541-3.974 3.144-8.716 4.8-13.71 4.8zm17.609-8.919a.475.475 0 01-.237-.078.39.39 0 01-.059-.542C53.344 44.766 55 39.795 55 34.515c0-4.94-1.463-9.647-4.24-13.626-.118-.17-.089-.418.074-.542a.362.362 0 01.517.077c2.866 4.12 4.373 8.981 4.373 14.091 0 5.451-1.7 10.592-4.934 14.85a.31.31 0 01-.266.14zM20.756 15.082a.38.38 0 01-.31-.17.423.423 0 01.103-.542 21.984 21.984 0 0112.365-3.81c2.94 0 5.806.573 8.51 1.72.191.077.28.309.206.51a.37.37 0 01-.488.217 21.15 21.15 0 00-8.228-1.657 21.23 21.23 0 00-11.966 3.686.437.437 0 01-.192.046z" fill="#3A1811"/><path d="M32.914 53.593c10.06 0 18.214-8.549 18.214-19.093 0-10.545-8.155-19.093-18.214-19.093-10.06 0-18.215 8.548-18.215 19.093 0 10.544 8.155 19.093 18.215 19.093z" fill="#D81F26"/><path d="M32.914 54.367c-10.46 0-18.954-8.92-18.954-19.867 0-10.948 8.51-19.867 18.954-19.867 10.46 0 18.953 8.919 18.953 19.867 0 10.947-8.494 19.867-18.953 19.867zm0-38.186c-9.632 0-17.476 8.223-17.476 18.319 0 10.096 7.844 18.318 17.476 18.318 9.632 0 17.476-8.222 17.476-18.318 0-10.112-7.83-18.319-17.476-18.319z" fill="#3A1811"/><path d="M32.914 51.023c-3.723 0-7.327-1.378-10.164-3.887a.389.389 0 01-.044-.542.348.348 0 01.517-.046c2.703 2.4 6.146 3.716 9.69 3.716 3.31 0 6.457-1.1 9.086-3.205 2.541-2.029 4.447-4.909 5.333-8.099.399-1.44.606-2.927.606-4.444 0-.217.162-.387.37-.387.206 0 .368.17.368.387 0 1.58-.206 3.159-.635 4.66-.945 3.361-2.925 6.38-5.599 8.502-2.762 2.183-6.056 3.345-9.528 3.345zm12.512-25.535a.38.38 0 01-.295-.155c-1.995-2.927-4.92-5.048-8.199-6.008a.387.387 0 01-.251-.48c.059-.202.251-.325.458-.264 3.457 1.007 6.5 3.237 8.612 6.303a.407.407 0 01-.088.542c-.089.03-.163.062-.237.062z" fill="#3A1811"/><path d="M32.914 46.16c6.143 0 11.124-5.22 11.124-11.66s-4.98-11.66-11.124-11.66S21.79 28.06 21.79 34.5s4.98 11.66 11.124 11.66z" fill="#FAF5AE"/><path d="M32.914 46.934c-6.545 0-11.863-5.575-11.863-12.434 0-6.86 5.319-12.435 11.863-12.435S44.776 27.64 44.776 34.5s-5.318 12.434-11.862 12.434zm0-23.336c-5.732 0-10.386 4.878-10.386 10.886 0 6.008 4.654 10.886 10.386 10.886 5.732 0 10.385-4.878 10.385-10.886 0-6.008-4.653-10.886-10.385-10.886z" fill="#3A1811"/><path d="M32.914 43.977a.375.375 0 01-.37-.387c0-.217.163-.387.37-.387 4.58 0 8.317-3.903 8.317-8.718 0-.217.162-.387.37-.387.206 0 .368.17.368.387 0 5.25-4.062 9.492-9.055 9.492zm7.194-14.184a.38.38 0 01-.31-.17 8.57 8.57 0 00-2.955-2.803.397.397 0 01-.147-.527c.103-.186.325-.263.502-.155a9.391 9.391 0 013.22 3.05.395.395 0 01-.103.543.465.465 0 01-.207.062z" fill="#3A1811"/><path d="M32.914 39.982c2.888 0 5.23-2.454 5.23-5.482 0-3.027-2.342-5.481-5.23-5.481-2.889 0-5.23 2.454-5.23 5.481 0 3.028 2.341 5.482 5.23 5.482z" fill="#BE1E2D"/><path d="M32.913 40.74c-3.294 0-5.968-2.803-5.968-6.256 0-3.453 2.674-6.256 5.968-6.256 3.295 0 5.969 2.803 5.969 6.256 0 3.453-2.674 6.256-5.968 6.256zm0-10.948c-2.466 0-4.49 2.106-4.49 4.708 0 2.586 2.009 4.707 4.49 4.707 2.482 0 4.491-2.106 4.491-4.707 0-2.602-2.009-4.707-4.49-4.707z" fill="#3A1811"/><path d="M66.108 35.615h-32.13c-.592 0-1.064-.496-1.064-1.115 0-.62.472-1.115 1.063-1.115h32.131c.59 0 1.064.495 1.064 1.115-.015.604-.488 1.115-1.064 1.115z" fill="#A67A44"/><path d="M66.108 36.002h-32.13c-.784 0-1.434-.666-1.434-1.502s.636-1.502 1.433-1.502h32.131c.783 0 1.433.666 1.433 1.502s-.65 1.502-1.433 1.502zm-32.13-2.23c-.385 0-.695.325-.695.728 0 .403.31.728.694.728h32.131c.384 0 .694-.325.694-.728 0-.403-.31-.728-.694-.728h-32.13z" fill="#3A1811"/><path d="M65.015 33.385h-7.18c-.354 0-.516-.449-.265-.696l3.22-3.113a.414.414 0 01.266-.108h7.18c.354 0 .517.449.266.697l-3.22 3.112a.414.414 0 01-.267.108z" fill="#00AEEF"/><path d="M65.015 33.772h-7.18a.776.776 0 01-.709-.496.793.793 0 01.192-.867l3.22-3.112a.72.72 0 01.518-.217h7.18c.31 0 .59.201.709.496a.793.793 0 01-.193.867l-3.22 3.112a.72.72 0 01-.517.217zm-3.96-3.918l-3.22 3.113s-.014.015 0 .015c0 .016 0 .016.015.016h7.194l3.206-3.113s.015-.015 0-.015c0-.016 0-.016-.015-.016h-7.18z" fill="#3A1811"/><path d="M65.015 35.615h-7.18c-.354 0-.516.45-.265.697l3.22 3.113a.414.414 0 00.266.108h7.18c.354 0 .517-.45.266-.697l-3.22-3.112a.347.347 0 00-.267-.109z" fill="#00AEEF"/><path d="M68.235 39.904h-7.18a.746.746 0 01-.516-.217l-3.22-3.112a.787.787 0 01-.193-.868.74.74 0 01.71-.495h7.179c.192 0 .37.077.517.217l3.22 3.112c.237.217.31.558.193.867a.776.776 0 01-.71.496zM57.85 36.002c-.015 0-.015 0-.015.015v.016l3.22 3.112h7.195c.015 0 .015 0 .015-.015v-.016l-3.22-3.112H57.85zm1.3-.976H44.038a.375.375 0 01-.37-.387c0-.217.163-.387.37-.387h15.098c.206 0 .369.17.369.387a.355.355 0 01-.355.387zm5.791-2.322h-3.737a.375.375 0 01-.37-.387c0-.217.163-.387.37-.387h3.442l1.448-1.394a.358.358 0 01.517.016c.133.155.133.402-.015.542l-1.655 1.61z" fill="#3A1811"/><path d="M64.66 36.977h-3.456a.375.375 0 01-.37-.387c0-.217.163-.387.37-.387h3.457c.206 0 .369.17.369.387a.375.375 0 01-.37.387z" fill="#3A1811"/></svg>
